X: 23935
T: Lochaber Badger, The
R: reel
M: 4/4
K: Eminor
|:B3B AG E2|E2 DE GDEG|B2 AG AG E2|EDGD E2E2|
B3B AG E2|E2 DE GDEG|B3 A AG E2|EDGD E2E2|
E2 DE GE A2|A2 GA AG B2|B2 AG AG E2|EDGD E2E2|
E2 DE GE A2|A2 GA AG B2|A/B/d ed {B}AG E2|e/d/B {F}ED E2E2:|

